X:129506
T:129506
M:4/4
K:Cmaj
EFGcAFF2|EFGEDCED|CEGcEFG2|GcAFGFED:|Gcc2edcB|AFF2GABd|cBcde2dc|(3BAGAFGEC2|Gcc2edcB|AFF2AFG2|CDEFGcBc|AFF2EDC2|

